X:1044
T:Rose of Arranmore, The
C:Joe Buchanan's Scottish Tome - Page 632.3
I:632 3
Z:Carl Allison
R:Waltz
L:1/4
M:3/4
K:F
"F"F2 A | "F7"c A F | "Bb"B2 d | "Bb"f e d | "F"c2 d | "Dm"c A F | "G7"G3 | "C7"G A G |
"F"F2 A | "F7"c A F | "Bb"B2 d | "Bb"f e d | "F"c2 A | "C7"B G E | "F"F3 | "F"F2 F |
"Bb"B2 d | "Bb"f e d | "F"c2 d | "F7"c A F | "Bb"B2 d | "F"c A F | "G7"G3 | "G7"G A G |
"F"F2 A | "F7"c A F | "Bb"B2 d | "Bb"f e d | "F"c2 A | "C7"B G E | "F"F3- | "F"F2 |]

